!!!!SEGMENT: pl-cz--iii-103_danik-jan-ignac--ave-te-in-matrem.krn
!!!cenid: 17xx:874
!!!COM: Danik, Ján Ignác
!!!COM-rismID: pe30000792
!!!CDT: ~1700-~1799
!!!CNT: Czech
!!!OTL: Ave Te in Matrem
!!!PDT: 1773
!!!AGN: Sacred
!!!SMS-siglum: PL-CZ
!!!SMS-shelfmark: III-103
!!!SMS-shelfwork: W
!!!SMS-variant:
!!!SMS-altvar:
!!!NIFC-rismSourceID: 300000098
!!!NIFC-islandoraID: pl-cz:34122
!!!URL-pdf-islandora: https://repozytorium.nifc.pl/islandora/object/pl-cz%3A34122/datastream/PDF/view
!!!URL-scan:
!!!ONB-nifc:
!!!AIN: 1 organ 2 violn 1 vox
!!!key: F
**kern	**fba	**dynam	**kern	**dynam	**kern	**dynam	**kern	**text
*	*	*	*group1	*	*group1	*	*	*
*part4	*part4	*part4	*part3	*part3	*part2	*part2	*part1	*part1
*staff4	*	*	*staff3	*	*staff2	*	*staff1	*staff1
*>[A,B,A]	*	*	*>[A,B,A]	*	*>[A,B,A]	*	*>[A,B,A]	*
*>A	*	*	*>A	*	*>A	*	*>A	*
*I"Organo.	*	*	*I"Violino 2do	*	*I"Violino Primo.	*	*I"La. Voce.	*
*I'org	*	*	*I'vl 2	*	*I'vl 1	*	*I'V	*
*Iorgan	*	*	*Ivioln	*	*Ivioln	*	*Ivox	*
*ICklav	*	*	*ICstr	*	*ICstr	*	*ICvox	*
*IGcont	*	*	*	*	*	*	*	*
*clefF4	*	*	*clefG2	*	*clefG2	*	*clefC1	*
*k[b-]	*	*	*k[b-]	*	*k[b-]	*	*k[b-]	*
*F:	*	*	*F:	*	*F:	*	*F:	*
*M2/4	*	*	*M2/4	*	*M2/4	*	*M2/4	*
!	!	!	!	!	!	!	!LO:TX:t=P:problem=brak przedtaktu	!
!LO:TX:a:B:t=moderato.	!	!	!LO:TX:a:B:t=moderato.	!	!LO:TX:a:B:t=moderato.	!	!LO:TX:a:B:t=moderato.	!
8C|/	.	.	8c/	.	8c/	.	8ryy	.
=1	=1	=1	=1	=1	=1	=1	=1	=1
8F|>\L	.	.	8f/L	.	8f/L	.	0r	.
8A|\	.	.	8a/	.	8a/	.	.	.
8c|\	.	.	8cc/	.	8cc/	.	.	.
8F|>\J	.	.	8f/J	.	8f/J	.	.	.
=2	=2	=2	=2	=2	=2	=2	=2	=2
16E|\LL	.	.	16e/LL	.	16e/LL	.	.	.
16D|\J	.	.	16d/J	.	16d/J	.	.	.
8C|\J	.	.	8c/J	.	8c/J	.	.	.
8r	.	.	8r	.	8r	.	.	.
16E|\LL	.	.	16e/LL	.	16e/LL	.	.	.
16F|\JJ	.	.	16f/JJ	.	16f/JJ	.	.	.
=3	=3	=3	=3	=3	=3	=3	=3	=3
8G|\L	.	.	8g/L	.	8g/L	.	.	.
8A|\	.	.	8a/	.	8a/	.	.	.
8B-|\	.	.	8b-/	.	8b-/	.	.	.
8G|\J	.	.	8g/J	.	8g/J	.	.	.
=4	=4	=4	=4	=4	=4	=4	=4	=4
!	!	!	!LO:TX:t=P:problem=mixed beam	!	!LO:TX:t=P:problem=mixed beam	!	!	!
8A|\L	.	.	8a/L	.	8a/L	.	.	.
8F|>\J	.	.	8ff\J	.	8ff\J	.	.	.
8r	.	.	8r	.	8r	.	.	.
16E|\LL	.	.	16e/LL	.	16e/LL	.	.	.
16F|\JJ	.	.	16f/JJ	.	16f/JJ	.	.	.
=5	=5	=5	=5	=5	=5	=5	=5	=5
8G|\L	.	.	8g/L	.	8g/L	.	0r	.
8A|\	.	.	8a/	.	8a/	.	.	.
8B-|\	.	.	8b-/	.	8b-/	.	.	.
8G|\J	.	.	8g/J	.	8g/J	.	.	.
=6	=6	=6	=6	=6	=6	=6	=6	=6
8A|\L	.	.	8a/L	.	8a/L	.	.	.
8c|\J	.	.	8cc/J	.	8cc/J	.	.	.
16B-|\LL	.	.	16b-/LL	.	16b-/LL	.	.	.
16A|\	.	.	16a/	.	16a/	.	.	.
16G|\	.	.	16g/	.	16g/	.	.	.
16F|\JJ	.	.	16f/JJ	.	16f/JJ	.	.	.
!	!	!	!LO:LB:g=original	!	!LO:LB:g=original	!	!	!
=7	=7	=7	=7	=7	=7	=7	=7	=7
!LO:TX:t=P:problem=mixed beam	!	!	!LO:TX:t=P:problem=mixed beam	!	!	!	!	!
8F\L	.	.	8c/L	.	4c/	.	.	.
8A\	6	.	8ff\	.	.	.	.	.
.	.	.	.	.	16qqee/LL	.	.	.
.	.	.	.	.	16qqff/JJ	.	.	.
8c\	5 4	.	8ff'\	.	4ggT\	.	.	.
8C/J	x 3	.	8ee\J	.	.	.	.	.
!LO:LB:g=original	!	!	!	!	!	!	!	!
=8	=8	=8	=8	=8	=8	=8	=8	=8
!LO:TX:t=P:problem=mixed beam	!	!	!	!	!	!	!	!
8FF|/L	.	.	8ff\L	.	8ff\L	.	.	.
8F|>\	.	.	8dd\J	.	8ff\J	.	.	.
8FF|/	.	.	(16cc\LL	.	(16ee\LL	.	.	.
.	.	.	16dd\)	.	16ff\)	.	.	.
8F|>\J	.	.	(16cc\	.	(16ee\	.	.	.
.	.	.	16b-\JJ)	.	16dd\JJ)	.	.	.
=9	=9	=9	=9	=9	=9	=9	=9	=9
!LO:TX:t=P:problem=mixed beam	!	!	!	!	!	!	!	!
8FF|/L	.	.	4b-/	.	4ddT\	.	0r	.
8F|>\	.	.	.	.	.	.	.	.
8FF|/	.	.	4a/	.	4cc\	.	.	.
8F|>\J	.	.	.	.	.	.	.	.
=10	=10	=10	=10	=10	=10	=10	=10	=10
!LO:TX:t=P:problem=mixed beam	!	!	!	!	!	!	!	!
8FF|/L	.	.	8r	.	8r	.	.	.
8F|>\	.	.	8b-\	.	8dd\	.	.	.
8FF|/	.	.	(16a/LL	.	(16cc\LL	.	.	.
.	.	.	16b-/)	.	16dd\)	.	.	.
8F|>\J	.	.	(16a/	.	(16cc\	.	.	.
.	.	.	16g/JJ)	.	16b-\JJ)	.	.	.
=11	=11	=11	=11	=11	=11	=11	=11	=11
!LO:TX:t=P:problem=mixed beam	!	!	!	!	!	!	!	!
8FF|/L	.	.	4gT/	.	4b-T/	.	.	.
8F|>\	.	.	.	.	.	.	.	.
8FF|/	.	.	4f/	.	4a/	.	.	.
8F|>\J	.	.	.	.	.	.	.	.
=12	=12	=12	=12	=12	=12	=12	=12	=12
!LO:TX:t=P:problem=mixed beam	!	!	!	!	!	!	!	!
8FF|/L	.	.	8r	.	8r	.	.	.
8F|>\	.	.	8ff\	.	8ddd\	.	.	.
8FF|/	.	.	(16ee\LL	.	(16ccc\LL	.	.	.
.	.	.	16ff\)	.	16ddd\)	.	.	.
8F|>\J	.	.	(16ee\	.	(16ccc\	.	.	.
.	.	.	16dd\JJ)	.	16bb-\JJ)	.	.	.
=13	=13	=13	=13	=13	=13	=13	=13	=13
!LO:TX:t=P:problem=mixed beam	!	!	!	!	!	!	!	!
8FF|/L	.	.	4ddT\	.	4bb-T\	.	0r	.
8F|>\	.	.	.	.	.	.	.	.
8FF|/	.	.	4cc\	.	4aa\	.	.	.
8F|>\J	.	.	.	.	.	.	.	.
=14	=14	=14	=14	=14	=14	=14	=14	=14
!LO:TX:t=P:problem=mixed beam	!	!	!	!	!	!	!	!
8FF|/L	.	.	8r	.	8r	.	.	.
8F|>\	.	.	8dd\	.	8bb-\	.	.	.
8FF|/	.	.	(16cc\LL	.	(16aa\LL	.	.	.
.	.	.	16dd\)	.	16bb-\)	.	.	.
8F|>\J	.	.	(16cc\	.	(16aa\	.	.	.
.	.	.	16b-\JJ)	.	16gg\JJ)	.	.	.
!	!	!	!	!	!LO:LB:g=original	!	!	!
=15	=15	=15	=15	=15	=15	=15	=15	=15
!LO:TX:t=P:problem=mixed beam	!	!	!	!	!	!	!	!
8FF|/L	.	.	4b-T/	.	4ggT\	.	.	.
8F|>\	.	.	.	.	.	.	.	.
8FF|/	.	.	4a/	.	4ff\	.	.	.
8F|>\J	.	.	.	.	.	.	.	.
!	!	!	!LO:LB:g=original	!	!	!	!	!
=16	=16	=16	=16	=16	=16	=16	=16	=16
8r	.	.	16cc\LL	.	16ee\LL	.	.	.
.	.	.	16ee\JJ	.	16gg\JJ	.	.	.
8C/L	7	.	4gg\	.	4bb-\	.	.	.
8E/	.	.	.	.	.	.	.	.
8F/J	.	.	8ff\	.	8aa\	.	.	.
=17	=17	=17	=17	=17	=17	=17	=17	=17
8r	.	.	8ee\	.	8gg\	.	0r	.
.	.	.	.	.	8qqff/	.	.	.
8G\L	6 3	.	4g/	.	4ee\	.	.	.
8C\	.	.	.	.	.	.	.	.
8F\J	.	.	8a/	.	8ff\	.	.	.
!LO:LB:g=original	!	!	!	!	!	!	!	!
=18	=18	=18	=18	=18	=18	=18	=18	=18
!	!	!	!LO:TUP:b	!	!	!	!	!
8r	.	.	24g/LL	.	24ee\LL	.	.	.
.	.	.	24a/	.	24ff\	.	.	.
.	.	.	24b-/JJ	.	24gg\JJ	.	.	.
.	.	.	.	.	8qqcc/	.	.	.
8C/L	7	.	4g/	.	4b-\	.	.	.
8E/	.	.	.	.	.	.	.	.
8F/J	.	.	8f/	.	8a/	.	.	.
=19	=19	=19	=19	=19	=19	=19	=19	=19
!	!	!	!LO:TX:t=P:problem=mixed beam	!	!LO:TX:t=P:problem=mixed beam	!	!	!
8r	.	.	16e/LL	.	16g/LL	.	.	.
.	.	.	16ee|\	.	16gg|\	.	.	.
8C/L	.	.	(16ee\	.	(16gg\	.	.	.
.	.	.	16ff\JJ)	.	16aa\JJ)	.	.	.
8E/	.	.	4gg\	.	4bb-\	.	.	.
8C/J	7	.	.	.	.	.	.	.
=20	=20	=20	=20	=20	=20	=20	=20	=20
!LO:TX:t=P:problem=mixed beam	!	!	!	!	!	!	!	!
8F\L	.	.	8cc|\L	.	24aa\LL	.	.	.
.	.	.	.	.	24gg\	.	.	.
.	.	.	.	.	24ff\	.	.	.
8A\	6	.	8ff\	.	24ee\	.	.	.
.	.	.	.	.	24dd\	.	.	.
.	.	.	.	.	24cc\JJ	.	.	.
8c\	5 4	.	8ff\	.	4ggT\	.	.	.
8C/J	x 3	.	8ee\J	.	.	.	.	.
=21	=21	=21	=21	=21	=21	=21	=21	=21
!	!	!	!LO:TX:t=P:problem=mixed beam	!	!	!	!	!
4F\	.	.	8ff\L	.	8ff\L	.	0r	.
.	.	.	16.a/L	.	16.cc\L	.	.	.
.	.	.	32b-/JJk	.	32dd\JJk	.	.	.
8r	.	.	8a/L	.	8cc\L	.	.	.
8B-\	4 2	.	8g/J	.	8ee\J	.	.	.
!	!	!	!	!	!LO:LB:g=original	!	!	!
=22	=22	=22	=22	=22	=22	=22	=22	=22
4A\	6 3	.	8a/L	.	8ff\L	.	.	.
.	.	.	16.a/L	.	16.cc\L	.	.	.
.	.	.	32b-/JJk	.	32dd\JJk	.	.	.
8r	.	.	8a/L	.	8cc\L	.	.	.
8C/	7	.	8g/J	.	8b-\J	.	.	.
=23	=23	=23	=23	=23	=23	=23	=23	=23
4F\	.	.	8f/L	.	8a\L	.	.	.
.	.	.	16.a/L	.	16.cc\L	.	.	.
.	.	.	32b-/JJk	.	32dd\JJk	.	.	.
!	!	!	!LO:LB:g=original	!	!	!	!	!
8r	.	.	8a/L	.	8cc\L	.	.	.
8B-\	4 2	.	8g/J	.	8ee\J	.	.	.
=24	=24	=24	=24	=24	=24	=24	=24	=24
4A\	6 3	.	8a/L	.	8ff\L	.	.	.
.	.	.	16.a/L	.	16.cc\L	.	.	.
.	.	.	32b-/JJk	.	32dd\JJk	.	.	.
8r	.	.	8a/L	.	8cc\L	.	.	.
8C/	7	.	8g/J	.	8b-\J	.	.	.
=25	=25	=25	=25	=25	=25	=25	=25	=25
.	.	.	8qqg/	.	8qqb-/	.	.	.
4F\	.	.	4f/	.	4a/	.	2r	.
!	!	!	!LO:TX:t=P:problem=pojedyncza kreska taktowa	!	!LO:TX:t=P:problem=pojedyncza kreska taktowa	!	!LO:TX:t=P:problem=pojedyncza kreska taktowa	!
4r	.	.	4r	.	4r	.	.	.
=26||	=26||	=26||	=26||	=26||	=26||	=26||	=26||	=26||
*2\right	*	*	*	*	*	*	*2\right	*
2F;\	.	.	2r;	.	2r;	.	2cc;\	A-
=27	=27	=27	=27	=27	=27	=27	=27	=27
!	!	!LO:DY:a:t=Piano.	!	!LO:DY:a:t=Piano.	!	!LO:DY:a:t=Piano	!	!
4FF/	.	p	4r	p	4r	p	4f/	-ve
4r	.	.	8r	.	8r	.	8r	.
.	.	.	8c/	.	8c/	.	8c/	Te
!LO:LB:g=original	!	!	!	!	!	!	!	!
=28	=28	=28	=28	=28	=28	=28	=28	=28
!	!	!	!	!	!LO:TX:t=P:problem=mixed beam	!	!	!
8r	.	.	16f/LL	.	16f/LL	.	8f/	in
.	.	.	16a/	.	16ff\	.	.	.
8F\L	.	.	16a/	.	16ff\	.	8a\	Ma-
.	.	.	16a/JJ	.	16ff\JJ	.	.	.
*	*	*	*tremolo	*	*	*	*	*
8A\	.	.	16a/LL	.	16ff\LL	.	8cc\	-trem
.	.	.	16a/	.	16ff\	.	.	.
8F\J	.	.	16a/	.	16ff\	.	8f/	e-
.	.	.	16a/JJ	.	16ff\JJ	.	.	.
!	!	!	!	!	!LO:LB:g=original	!	!	!
=29	=29	=29	=29	=29	=29	=29	=29	=29
*	*	*	*	*	*2\right	*	*	*
*	*	*	*	*	*tremolo	*	*	*
8r	.	.	16g/LL	.	16ee\LL	.	(16e/LL	-le-
.	.	.	16g/	.	16ee\	.	16f/JJ)	.
8C/L	.	.	16g/	.	16ee\	.	8g\	-git
.	.	.	16g/	.	16ee\	.	.	.
!	!	!	!	!	!	!	!LO:LB:g=original	!
8E/	.	.	16g/	.	16ee\	.	8r	.
.	.	.	16g/	.	16ee\	.	.	.
8C/J	.	.	16g/	.	16ee\	.	(16g\LL	qui
.	.	.	16g/JJ	.	16ee\JJ	.	16a\JJ)	.
=30	=30	=30	=30	=30	=30	=30	=30	=30
*	*	*	*2\right	*	*	*	*	*
8r	.	.	16b-\LL	.	16gg\LL	.	8b-\	cae-
.	.	.	16b-\	.	16gg\	.	.	.
!LO:TX:t=P:problem=mixed beam	!	!	!	!	!	!	!	!
8c\L	7	.	16b-\	.	16gg\	.	8gg\	-li
.	.	.	16b-\	.	16gg\	.	.	.
8c\	.	.	16b-\	.	16gg\	.	8ee\	as-
.	.	.	16b-\	.	16gg\	.	.	.
8C/J	.	.	16b-\	.	16gg\	.	8b-\	-tra
.	.	.	16b-\JJ	.	16gg\JJ	.	.	.
=31	=31	=31	=31	=31	=31	=31	=31	=31
8r	.	.	16a/LL	.	16ff\LL	.	(16a\LL	re-
.	.	.	16a/	.	16ff\	.	16b-\JJ)	.
8F\L	.	.	16a/	.	16ff\	.	8cc\	-git,
.	.	.	16a/	.	16ff\	.	.	.
8A\	.	.	16a/	.	16ff\	.	8r	.
.	.	.	16a/	.	16ff\	.	.	.
8F\J	.	.	16a/	.	16ff\	.	(16cc\LL	ac
.	.	.	16a/JJ	.	16ff\JJ	.	16a\JJ)	.
=32	=32	=32	=32	=32	=32	=32	=32	=32
8r	.	.	16b-\LL	.	16gg\LL	.	8.b-\	Sy-
.	.	.	16b-\	.	16gg\	.	.	.
8C/L	7	.	16b-\	.	16gg\	.	.	.
.	.	.	16b-\	.	16gg\	.	16gg\	-de-
8E/	.	.	16b-\	.	16gg\	.	8ee\	-ra
.	.	.	16b-\	.	16gg\	.	.	.
8C/J	.	.	16b-\	.	16gg\	.	8b-\	gu-
.	.	.	16b-\JJ	.	16gg\JJ	.	.	.
*	*	*	*Xtremolo	*	*Xtremolo	*	*	*
!	!	!	!LO:LB:g=original	!	!	!	!	!
=33	=33	=33	=33	=33	=33	=33	=33	=33
8r	.	.	16a/LL	.	16ff\LL	.	(16a\LL	-ber-
.	.	.	16a/	.	16ff\	.	16g\JJ)	.
8F\L	.	.	16a/	.	16ff\	.	8f/	-nat,
.	.	.	16a/JJ	.	16ff\JJ	.	.	.
!	!	!	!	!	!	!	!LO:LB:g=original	!
8A\	.	.	16a\LL	.	16ff\LL	.	8r	.
.	.	.	16a\	.	16ff\	.	.	.
8F\J	.	.	16ff\	.	16aa\	.	8aa\	Tu
.	.	.	16ff\JJ	.	16aa\JJ	.	.	.
=34	=34	=34	=34	=34	=34	=34	=34	=34
*	*	*	*tremolo	*	*tremolo	*	*	*
8r	.	.	16ee\LL	.	16gg\LL	.	(16gg\LL	e-
.	.	.	16ee\	.	16gg\	.	16ee\JJ)	.
8C/L	.	.	16ee\	.	16gg\	.	8cc\	-nim
.	.	.	16ee\	.	16gg\	.	.	.
8E/	.	.	16ee\	.	16gg\	.	8r	.
.	.	.	16ee\	.	16gg\	.	.	.
8C/J	.	.	16ee\	.	16gg\	.	8gg\	tu
.	.	.	16ee\JJ	.	16gg\JJ	.	.	.
=35	=35	=35	=35	=35	=35	=35	=35	=35
8r	.	.	16dd\LL	.	16ee\LL	.	(16ff\LL	di-
.	.	.	16dd\	.	16ee\	.	16dd\JJ)	.
8GG/L	7 n	.	16dd\	.	16ee\	.	8bn\	-gna
.	.	.	16dd\	.	16ee\	.	.	.
8BBn/	.	.	16dd\	.	16ee\	.	8r	.
.	.	.	16dd\	.	16ee\	.	.	.
8GG/J	.	.	16dd\	.	16ee\	.	8ff\	fu-
.	.	.	16dd\JJ	.	16ee\JJ	.	.	.
*	*	*	*Xtremolo	*	*Xtremolo	*	*	*
=36	=36	=36	=36	=36	=36	=36	=36	=36
8r	.	.	16cc\LL	.	16ee\LL	.	8ee\	-is-
.	.	.	16cc\	.	16ee\	.	.	.
!LO:TX:t=P:problem=mixed beam	!	!	!	!	!	!	!	!
8c\L	.	.	16ee\	.	16gg\	.	8gg\	-ti
.	.	.	16ee\JJ	.	16gg\JJ	.	.	.
8c\	.	.	16ee\LL	.	16gg\LL	.	8r	.
.	.	.	16ee\	.	16gg\	.	.	.
8C/J	.	.	16cc\	.	16ee\	.	8ee\	di-
.	.	.	16cc\JJ	.	16ee\JJ	.	.	.
=37	=37	=37	=37	=37	=37	=37	=37	=37
8r	.	.	16bn\LL	.	16dd\LL	.	8dd\	-vi-
.	.	.	16b\	.	16dd\	.	.	.
!LO:TX:t=P:problem=mixed beam	!	!	!	!	!	!	!	!
8G\L	7 n	.	16dd\	.	16ff\	.	8ff\	-no
.	.	.	16dd\JJ	.	16ff\JJ	.	.	.
!	!	!	!	!	!LO:LB:g=original	!	!	!
8G\	.	.	16dd\LL	.	16ff\LL	.	8r	.
.	.	.	16dd\	.	16ff\	.	.	.
8GG/J	.	.	16b\	.	16dd\	.	8ff\	A-
.	.	.	16b\JJ	.	16dd\JJ	.	.	.
!LO:LB:g=original	!	!	!	!	!	!	!	!
=38	=38	=38	=38	=38	=38	=38	=38	=38
8r	.	.	16cc\LL	.	16ee-X\LL	.	8ee-X\	-mo-
.	.	.	16cc\	.	16ee-\	.	.	.
!LO:TX:t=P:problem=mixed beam	!	!	!	!	!	!	!	!
8c\L	-	.	16ee-X\	.	16gg\	.	8gg\	-re
.	.	.	16ee-\JJ	.	16gg\JJ	.	.	.
!	!	!	!	!	!	!	!LO:LB:g=original	!
8c\	.	.	16ee-\LL	.	16gg\LL	.	8r	.
.	.	.	16ee-\	.	16gg\	.	.	.
8C/J	.	.	16cc\	.	16ee-\	.	8ee-X\	o
.	.	.	16cc\JJ	.	16ee-\JJ	.	.	.
!	!	!	!LO:LB:g=original	!	!	!	!	!
=39	=39	=39	=39	=39	=39	=39	=39	=39
8r	.	.	16bn\LL	.	16dd\LL	.	(16dd\LL	pi-
.	.	.	16b\	.	16dd\	.	16bn\JJ)	.
8G\L	.	.	16b\	.	16dd\	.	8g/	-a
.	.	.	16b\JJ	.	16dd\JJ	.	.	.
8Bn\	.	.	8b\L	.	8dd\L	.	8r	.
8G\J	.	.	8b\J	.	8gg\J	.	8gg\	Ma-
=40	=40	=40	=40	=40	=40	=40	=40	=40
8A\L	6\ 3	.	8cc\L	.	(8ff#X\L	.	(8ff#X\L	.
8Bn\	n5 3	.	8dd\	.	8ffn\J)	.	8ffn\J)	.
8c\	3	.	8g\	.	(8ee\L	.	(8ee\L	-ri-
8F#X\J	-7 3	.	8cc\J	.	8ee-X\J)	.	8ee-X\J)	.
=41	=41	=41	=41	=41	=41	=41	=41	=41
!	!	!	!	!LO:DY:a:t=for.	!	!LO:DY:a:t=for.	!	!
4G\	n	.	(16bn/LL	f	(16dd\LL	f	4dd\	-a,
.	.	.	16a/)	.	16cc\)	.	.	.
.	.	.	(16a/	.	(16cc\	.	.	.
.	.	.	16g/JJ)	.	16bn\JJ)	.	.	.
8r	.	.	8g/L	.	8b/L	.	8r	.
!	!	!	!	!LO:DY:a:t=pia.	!	!LO:DY:a:t=pia	!	!
8C/	.	.	8e/J	p	8g/J	p	8g/	Te
=42	=42	=42	=42	=42	=42	=42	=42	=42
!LO:TX:t=P:problem=mixed beam	!	!	!	!	!	!	!	!
8FF/L	.	.	16c/LL	.	16a\LL	.	8a/	su-
.	.	.	16a/	.	16ff\	.	.	.
8F\	.	.	16a/	.	16ff\	.	8ff\	-pra
.	.	.	16a/JJ	.	16ff\JJ	.	.	.
*	*	*	*tremolo	*	*tremolo	*	*	*
8A\	.	.	16a/LL	.	16ff\LL	.	8r	.
.	.	.	16a/	.	16ff\	.	.	.
8F\J	.	.	16a/	.	16ff\	.	8a/	E-
.	.	.	16a/JJ	.	16ff\JJ	.	.	.
!	!	!	!	!	!LO:LB:g=original	!	!	!
=43	=43	=43	=43	=43	=43	=43	=43	=43
8r	.	.	16g/LL	.	16ee\LL	.	8g/	-lec-
.	.	.	16g/	.	16ee\	.	.	.
8C/L	.	.	16g/	.	16ee\	.	8ee\	-tos
.	.	.	16g/	.	16ee\	.	.	.
!	!	!	!	!	!	!	!LO:LB:g=original	!
8E/	.	.	16g/	.	16ee\	.	8r	.
.	.	.	16g/	.	16ee\	.	.	.
8C/J	.	.	16g/	.	16ee\	.	8g/	Te
.	.	.	16g/JJ	.	16ee\JJ	.	.	.
=44	=44	=44	=44	=44	=44	=44	=44	=44
8r	.	.	16f/LL	.	16dd\LL	.	8f/	De-
.	.	.	16f/	.	16dd\	.	.	.
8GG/L	7 n	.	16f/	.	16dd\	.	8dd\	-us
.	.	.	16f/	.	16dd\	.	.	.
8BBn/	.	.	16f/	.	16dd\	.	8r	.
.	.	.	16f/	.	16dd\	.	.	.
8GG/J	.	.	16f/	.	16dd\	.	8f/	lo-
.	.	.	16f/JJ	.	16dd\JJ	.	.	.
=45	=45	=45	=45	=45	=45	=45	=45	=45
8r	.	.	16e/LL	.	16cc\LL	.	8e/	-ca-
.	.	.	16e/	.	16cc\	.	.	.
8C/L	.	.	16e/	.	16cc\	.	8cc\	-vit,
.	.	.	16e/	.	16cc\	.	.	.
8E/	.	.	16e/	.	16cc\	.	8r	.
.	.	.	16e/	.	16cc\	.	.	.
8C/J	.	.	16e/	.	16cc\	.	8cc\	qui-
.	.	.	16e/JJ	.	16cc\JJ	.	.	.
*	*	*	*Xtremolo	*	*Xtremolo	*	*	*
=46	=46	=46	=46	=46	=46	=46	=46	=46
!	!	!	!LO:TX:t=P:problem=mixed beam	!	!	!	!	!
8G\L	n	.	8d/L	.	(16bn/LL	.	(16bn\LL	-a
.	.	.	.	.	16a/J)	.	16a\J	.
8A\	.	.	8bn\	.	8g/J	.	8g\J)	.
8Bn\	.	.	8dd\	.	4ff\	.	4ff\	Te
8G\J	7	.	8b\J	.	.	.	.	.
!LO:LB:g=original	!	!	!LO:LB:g=original	!	!	!	!	!
=47	=47	=47	=47	=47	=47	=47	=47	=47
8C/L	.	.	8ee\L	.	8ee\L	.	(16ee\LL	a-
.	.	.	.	.	.	.	16cc\)	.
8D/	.	.	8dd\	.	8ff\	.	(16ff\	.
.	.	.	.	.	.	.	16dd\JJ)	.
8E/	.	.	8cc\	.	8gg\	.	(16gg\LL	.
.	.	.	.	.	.	.	16ee\)	.
8F/J	.	.	8cc\J	.	8aa\J	.	(16aa\	.
.	.	.	.	.	.	.	16ff\JJ)	.
=48	=48	=48	=48	=48	=48	=48	=48	=48
4G\	x 4	.	8cc\L	.	8ee\L	.	4ee\	-ma-
.	.	.	8ee\	.	8ccc\	.	.	.
4GG/	7 3	.	8dd\	.	8dd\	.	4dd\	.
.	.	.	8ff\J	.	8bbn\J	.	.	.
!	!	!	!	!	!	!	!LO:LB:g=original	!
=49	=49	=49	=49	=49	=49	=49	=49	=49
!	!	!LO:DY:a:t=Forte.	!	!	!	!LO:DY:a:t=Forte.	!	!
4C/	.	f	4ee\	.	4cc\	f	4cc\	-vit
8r	.	.	8r	.	8r	.	4r	.
!	!	!	!	!LO:DY:a:t=Forte.	!	!	!	!
8GG/	.	.	8G/	f	8G/	.	.	.
=50	=50	=50	=50	=50	=50	=50	=50	=50
8C|\L	.	.	8c/L	.	8c/L	.	0r	.
8E|\	.	.	8e/	.	8e/	.	.	.
8G|\	.	.	8g/	.	8g/	.	.	.
8C|\J	.	.	8c/J	.	8c/J	.	.	.
=51	=51	=51	=51	=51	=51	=51	=51	=51
16BBn|/LL	.	.	16Bn/LL	.	16Bn/LL	.	.	.
16AA|/J	.	.	16A/J	.	16A/J	.	.	.
8GG|/J	.	.	8G/J	.	8G/J	.	.	.
8r	.	.	8r	.	8r	.	.	.
16BB|/LL	.	.	16B/LL	.	16B/LL	.	.	.
16C|/JJ	.	.	16c/JJ	.	16c/JJ	.	.	.
!	!	!	!	!	!LO:LB:g=original	!	!	!
=52	=52	=52	=52	=52	=52	=52	=52	=52
8D|\L	.	.	8d/L	.	8d/L	.	.	.
8E|\	.	.	8e/	.	8e/	.	.	.
8F|>\	.	.	8f/	.	8f/	.	.	.
8D|\J	.	.	8d/J	.	8d/J	.	.	.
=53	=53	=53	=53	=53	=53	=53	=53	=53
!	!	!	!LO:TX:t=P:problem=mixed beam	!	!LO:TX:t=P:problem=mixed beam	!	!	!
8E|\L	.	.	8e/L	.	8e/L	.	.	.
8c|\J	.	.	8cc\J	.	8cc\J	.	.	.
8r	.	.	8r	.	8r	.	.	.
16BBn|/LL	.	.	16Bn/LL	.	16Bn/LL	.	.	.
16C|/JJ	.	.	16c/JJ	.	16c/JJ	.	.	.
=54	=54	=54	=54	=54	=54	=54	=54	=54
8D|\L	.	.	8d/L	.	8d/L	.	0r	.
8E|\	.	.	8e/	.	8e/	.	.	.
8F|>\	.	.	8f/	.	8f/	.	.	.
8D|\J	.	.	8d/J	.	8d/J	.	.	.
!LO:LB:g=original	!	!	!LO:LB:g=original	!	!	!	!	!
=55	=55	=55	=55	=55	=55	=55	=55	=55
8r	.	.	16e/LL	.	16e/LL	.	.	.
.	.	.	16g/JJ	.	16g/JJ	.	.	.
.	.	.	.	.	8qqdd/	.	.	.
8C/L	5 3	.	8cc\L	.	8cc\L	.	.	.
.	.	.	.	.	8qqdd/	.	.	.
8E/	.	.	8cc\	.	8cc\	.	.	.
.	.	.	.	.	8qqdd/	.	.	.
8C/J	.	.	8cc\J	.	8cc\J	.	.	.
=56	=56	=56	=56	=56	=56	=56	=56	=56
8r	.	.	8r	.	16bn\LL	.	.	.
.	.	.	.	.	16dd\JJ	.	.	.
.	.	.	.	.	8qqgg/	.	.	.
8G\L	7	.	8dd\L	.	8ff\L	.	.	.
8Bn\	.	.	8dd\	.	8ff\	.	.	.
8G\J	.	.	8dd\J	.	8ff\J	.	.	.
=57	=57	=57	=57	=57	=57	=57	=57	=57
!LO:TX:t=P:problem=mixed beam	!	!	!	!	!LO:TUP:a:r=4:problem=klamra łukowa	!	!	!
8C\L	.	.	8g\L	.	24ee\LL	.	.	.
.	.	.	.	.	24dd\	.	.	.
.	.	.	.	.	24cc\	.	.	.
!	!	!	!	!	!LO:TUP:r=4	!	!	!
8E\	6	.	8cc\	.	24bn\	.	.	.
.	.	.	.	.	24a\	.	.	.
.	.	.	.	.	24g\JJ	.	.	.
8G\	x 4	.	8cc\	.	4ddT\	.	.	.
8GG/J	5 3	.	8bn\J	.	.	.	.	.
=58	=58	=58	=58	=58	=58	=58	=58	=58
!	!	!	!LO:TX:t=P:problem=mixed beam	!	!	!	!	!
4C/	.	.	8cc\L	.	8cc\L	.	0r	.
.	.	.	16.e/L	.	(16g\L	.	.	.
.	.	.	.	.	16a\JJ)	.	.	.
.	.	.	32f/JJk	.	.	.	.	.
8r	.	.	8e/L	.	8g/L	.	.	.
8F\	n4 2	.	8d/J	.	8bn/J	.	.	.
!	!	!	!	!	!LO:LB:g=original	!	!	!
=59	=59	=59	=59	=59	=59	=59	=59	=59
4E\	.	.	8e/L	.	8cc\L	.	.	.
.	.	.	16.e/L	.	16.g\L	.	.	.
.	.	.	32f/JJk	.	32a\JJk	.	.	.
8r	.	.	8e/L	.	8g/L	.	.	.
8GG/	7 4	.	8d/J	.	8f/J	.	.	.
=60	=60	=60	=60	=60	=60	=60	=60	=60
4C/	.	.	8c/L	.	8e/L	.	.	.
.	.	.	16.e/L	.	16.g/L	.	.	.
.	.	.	32f/JJk	.	32a/JJk	.	.	.
8r	.	.	8e/L	.	8g/L	.	.	.
8F\	n4 2	.	8d/J	.	8bn/J	.	.	.
=61	=61	=61	=61	=61	=61	=61	=61	=61
4E\	6 3	.	8e/L	.	8cc/L	.	.	.
.	.	.	16.e/L	.	16.g/L	.	.	.
.	.	.	32f/JJk	.	32a/JJk	.	.	.
8r	.	.	8e/L	.	8g/L	.	.	.
8GG/	7 4	.	8d/J	.	8f/J	.	.	.
=62	=62	=62	=62	=62	=62	=62	=62	=62
4C/	.	.	4c/	.	4e/	.	2r	.
4r	.	.	4r	.	4r	.	.	.
!	!	!	!LO:LB:g=original	!	!	!	!	!
=63	=63	=63	=63	=63	=63	=63	=63	=63
!	!	!LO:DY:a:t=Piano.	!	!	!	!	!	!
2C;/	.	p	2r;	.	2r;	.	2gg;\	A-
=64	=64	=64	=64	=64	=64	=64	=64	=64
!	!	!	!	!LO:DY:a:t=piano.	!	!LO:DY:a:t=piano	!	!
4CC/	.	.	4r	p	4r	p	4cc\	-ve
4r	.	.	8r	.	8r	.	8r	.
.	.	.	8g/	.	8g/	.	8g/	Te
!LO:LB:g=original	!	!	!	!	!	!	!	!
=65	=65	=65	=65	=65	=65	=65	=65	=65
8r	.	.	16g\LL	.	16cc\LL	.	8cc\	in
.	.	.	16cc\	.	16ee\	.	.	.
8C/L	.	.	16cc\	.	16ee\	.	8ee\	Ma-
.	.	.	16cc\JJ	.	16ee\JJ	.	.	.
*	*	*	*tremolo	*	*	*	*	*
8E/	.	.	16cc\LL	.	16ee\LL	.	8gg\	-trem
.	.	.	16cc\	.	16ee\	.	.	.
8C/J	.	.	16cc\	.	16ee\	.	8cc\	e-
.	.	.	16cc\JJ	.	16ee\JJ	.	.	.
=66	=66	=66	=66	=66	=66	=66	=66	=66
*	*	*	*	*	*tremolo	*	*	*
8r	.	.	16bn\LL	.	16dd\LL	.	(16bn\LL	-le-
.	.	.	16b\	.	16dd\	.	16cc\JJ)	.
8GG/L	n	.	16b\	.	16dd\	.	8dd\	-git,
.	.	.	16b\	.	16dd\	.	.	.
8BBn/	.	.	16b\	.	16dd\	.	8r	.
.	.	.	16b\	.	16dd\	.	.	.
8GG/J	.	.	16b\	.	16dd\	.	(16dd\LL	qui
.	.	.	16b\JJ	.	16dd\JJ	.	16ee\JJ)	.
!	!	!	!	!	!LO:LB:g=original	!	!LO:LB:g=original	!
=67	=67	=67	=67	=67	=67	=67	=67	=67
8r	.	.	16dd\LL	.	16ff\LL	.	8ff\	cae-
.	.	.	16dd\	.	16ff\	.	.	.
8G\L	7	.	16dd\	.	16ff\	.	8dd\	-li
.	.	.	16dd\	.	16ff\	.	.	.
8Bn\	.	.	16dd\	.	16ff\	.	8bn\	aſ-
.	.	.	16dd\	.	16ff\	.	.	.
8G\J	.	.	16dd\	.	16ff\	.	8f/	-tra
.	.	.	16dd\JJ	.	16ff\JJ	.	.	.
=68	=68	=68	=68	=68	=68	=68	=68	=68
8r	.	.	16cc\LL	.	16ee\LL	.	8e/	re-
.	.	.	16cc\	.	16ee\	.	.	.
8C/L	.	.	16cc\	.	16ee\	.	8gg\	-git,
.	.	.	16cc\	.	16ee\	.	.	.
8E/	.	.	16cc\	.	16ee\	.	8r	.
.	.	.	16cc\	.	16ee\	.	.	.
8C/J	.	.	16cc\	.	16ee\	.	(16dd\LL	ac
.	.	.	16cc\JJ	.	16ee\JJ	.	16ee\JJ)	.
=69	=69	=69	=69	=69	=69	=69	=69	=69
8r	.	.	16f/LL	.	16dd\LL	.	8.ff\	Sy-
.	.	.	16f/	.	16dd\	.	.	.
!LO:TX:t=P:problem=mixed beam	!	!	!	!	!	!	!	!
8G\L	7 n	.	16f/	.	16dd\	.	.	.
.	.	.	16f/	.	16dd\	.	16dd\	-de-
8G\	.	.	16f/	.	16dd\	.	8bn\	-ra
.	.	.	16f/	.	16dd\	.	.	.
8GG/J	.	.	16f/	.	16dd\	.	8f/	gu-
.	.	.	16f/JJ	.	16dd\JJ	.	.	.
*	*	*	*Xtremolo	*	*Xtremolo	*	*	*
=70	=70	=70	=70	=70	=70	=70	=70	=70
8r	.	.	(16e/LL	.	(16cc\LL	.	(16e/LL	-ber-
.	.	.	16d/J)	.	16bn\J)	.	16d/JJ)	.
!LO:TX:t=P:problem=mixed beam	!	!	!	!	!	!	!	!
8C/L	.	.	8e|/J	.	8cc\J	.	8c/	-nat,
8c\	.	.	8r	.	8r	.	8r	.
8C/J	.	.	8c/	.	8c/	.	8c/	Te
=71	=71	=71	=71	=71	=71	=71	=71	=71
!	!	!	!	!	!LO:TX:t=P:problem=mixed beam	!	!	!
8r	.	.	16f/LL	.	16f/LL	.	8f/	in
.	.	.	16a/	.	16ff\	.	.	.
8F\L	.	.	16a/	.	16ff\	.	8a\	Ma-
.	.	.	16a/JJ	.	16ff\JJ	.	.	.
*	*	*	*tremolo	*	*tremolo	*	*	*
!	!	!	!	!	!	!	!LO:LB:g=original	!
8A\	.	.	16a/LL	.	16ff\LL	.	8cc\	-trem
.	.	.	16a/	.	16ff\	.	.	.
8F\J	.	.	16a/	.	16ff\	.	8f/	e-
.	.	.	16a/JJ	.	16ff\JJ	.	.	.
=72	=72	=72	=72	=72	=72	=72	=72	=72
8r	.	.	16g/LL	.	16ee\LL	.	(16e/LL	-le-
.	.	.	16g/	.	16ee\	.	16f/JJ)	.
8C/L	.	.	16g/	.	16ee\	.	8g/	-git,
.	.	.	16g/	.	16ee\	.	.	.
8E/	.	.	16g/	.	16ee\	.	8r	.
.	.	.	16g/	.	16ee\	.	.	.
8C/J	.	.	16g/	.	16ee\	.	(16g\LL	qui
.	.	.	16g/JJ	.	16ee\JJ	.	16a\JJ)	.
!	!	!	!LO:LB:g=original	!	!	!	!	!
=73	=73	=73	=73	=73	=73	=73	=73	=73
8r	.	.	16b-\LL	.	16gg\LL	.	8b-\	cae-
.	.	.	16b-\	.	16gg\	.	.	.
!LO:TX:t=P:problem=mixed beam	!	!	!	!	!	!	!	!
8c\L	7	.	16b-\	.	16gg\	.	8gg\	-li
.	.	.	16b-\	.	16gg\	.	.	.
8c\	.	.	16b-\	.	16gg\	.	8ee\	aſ-
.	.	.	16b-\	.	16gg\	.	.	.
8C/J	.	.	16b-\	.	16gg\	.	8b-\	-tra
.	.	.	16b-\JJ	.	16gg\JJ	.	.	.
!LO:LB:g=original	!	!	!	!	!	!	!	!
=74	=74	=74	=74	=74	=74	=74	=74	=74
8r	.	.	16a/LL	.	16ff\LL	.	(16a\LL	re-
.	.	.	16a/	.	16ff\	.	16b-\JJ)	.
8F\L	.	.	16a/	.	16ff\	.	8cc\	-git
.	.	.	16a/	.	16ff\	.	.	.
8A\	.	.	16a/	.	16ff\	.	8r	.
.	.	.	16a/	.	16ff\	.	.	.
8F\J	.	.	16a/	.	16ff\	.	(16cc\LL	ac
.	.	.	16a/JJ	.	16ff\JJ	.	16a\JJ)	.
=75	=75	=75	=75	=75	=75	=75	=75	=75
8r	.	.	16b-\LL	.	16gg\LL	.	8.b-\	Sy-
.	.	.	16b-\	.	16gg\	.	.	.
8C/L	.	.	16b-\	.	16gg\	.	.	.
.	.	.	16b-\	.	16gg\	.	16gg\	-de-
8E/	.	.	16b-\	.	16gg\	.	8ee\	-ra
.	.	.	16b-\	.	16gg\	.	.	.
8C/J	.	.	16b-\	.	16gg\	.	8b-\	gu-
.	.	.	16b-\JJ	.	16gg\JJ	.	.	.
*	*	*	*Xtremolo	*	*Xtremolo	*	*	*
=76	=76	=76	=76	=76	=76	=76	=76	=76
4F\	.	.	16a/LL	.	16ff\LL	.	(16a\LL	-ber-
.	.	.	16a/	.	16ff\	.	16g\JJ)	.
.	.	.	16a/	.	16ff\	.	8f/	-nat,
.	.	.	16a/JJ	.	16ff\JJ	.	.	.
16A|\LL	.	.	4a/	.	4ff\	.	4r	.
16c|\	.	.	.	.	.	.	.	.
16A|\	.	.	.	.	.	.	.	.
16F|\JJ	.	.	.	.	.	.	.	.
=77	=77	=77	=77	=77	=77	=77	=77	=77
8r	.	.	16a/LL	.	16cc\LL	.	8cc\	su-
.	.	.	16a/	.	16cc\	.	.	.
8F\L	-7 5 3	.	16a/	.	16cc\	.	8f/	-pra
.	.	.	16a/JJ	.	16cc\JJ	.	.	.
*	*	*	*tremolo	*	*	*	*	*
!	!	!	!	!	!LO:LB:g=original	!	!	!
8A\	.	.	16cc\LL	.	16ee-X\LL	.	8r	.
.	.	.	16cc\	.	16ee-\	.	.	.
8F\J	.	.	16cc\	.	16ee-\	.	8ee-X\	E-
.	.	.	16cc\JJ	.	16ee-\JJ	.	.	.
=78	=78	=78	=78	=78	=78	=78	=78	=78
*	*	*	*	*	*tremolo	*	*	*
8r	.	.	16b-\LL	.	16dd\LL	.	8dd\	-lec-
.	.	.	16b-\	.	16dd\	.	.	.
8B-\L	.	.	16b-\	.	16dd\	.	8ff\	-tos
.	.	.	16b-\JJ	.	16dd\JJ	.	.	.
8d\	.	.	16dd\LL	.	16ff\LL	.	8r	.
.	.	.	16dd\	.	16ff\	.	.	.
8B-\J	.	.	16dd\	.	16ff\	.	8dd\	Te
.	.	.	16dd\JJ	.	16ff\JJ	.	.	.
=79	=79	=79	=79	=79	=79	=79	=79	=79
8r	.	.	16a/LL	.	16cc\LL	.	8cc\	De-
.	.	.	16a/	.	16cc\	.	.	.
8F\L	-7 5 3	.	16a/	.	16cc\	.	8f/	-us
.	.	.	16a/JJ	.	16cc\JJ	.	.	.
8A\	.	.	16cc\LL	.	16ee-X\LL	.	8r	.
.	.	.	16cc\	.	16ee-\	.	.	.
8F\J	.	.	16cc\	.	16ee-\	.	8ee-X\	su-
.	.	.	16cc\JJ	.	16ee-\JJ	.	.	.
*	*	*	*Xtremolo	*	*Xtremolo	*	*	*
=80	=80	=80	=80	=80	=80	=80	=80	=80
!	!	!	!	!LO:DY:a:t=for.	!	!LO:DY:a:t=for.	!	!
8B-\	.	.	(16b-\LL	f	16dd\LL	f	4dd\	-os,
.	.	.	16dd\)	.	16ff|\	.	.	.
8r	.	.	(16dd\	.	(16ff\	.	.	.
.	.	.	16cc\JJ)	.	16ee-X\JJ)	.	.	.
8B-\L	.	.	8b-\	.	8dd\	.	4r	.
8A\J	6\ 3	.	8r	.	8r	.	.	.
=81	=81	=81	=81	=81	=81	=81	=81	=81
!	!	!	!	!LO:DY:t=pia.	!	!LO:DY:a:t=pia.	!	!
8G\L	n	.	16bn\LL	p	16dd\LL	p	8dd\	su-
.	.	.	16b\	.	16dd\	.	.	.
8G\	.	.	16b\	.	16dd\	.	8g/	-pra
.	.	.	16b\JJ	.	16dd\JJ	.	.	.
*	*	*	*tremolo	*	*tremolo	*	*	*
!	!	!	!LO:LB:g=original	!	!	!	!LO:LB:g=original	!
8Bn\	.	.	16dd\LL	.	16ff\LL	.	8r	.
.	.	.	16dd\	.	16ff\	.	.	.
8G\J	7	.	16dd\	.	16ff\	.	8ff\	Be-
.	.	.	16dd\JJ	.	16ff\JJ	.	.	.
=82	=82	=82	=82	=82	=82	=82	=82	=82
8r	.	.	16cc\LL	.	16een\LL	.	8een\	-a-
.	.	.	16cc\	.	16ee\	.	.	.
8C/L	.	.	16cc\	.	16ee\	.	8gg\	-tus
.	.	.	16cc\JJ	.	16ee\JJ	.	.	.
8E/	.	.	16ee\LL	.	16gg\LL	.	8r	.
.	.	.	16ee\	.	16gg\	.	.	.
8C/J	.	.	16ee\	.	16gg\	.	8ee\	Te
.	.	.	16ee\JJ	.	16gg\JJ	.	.	.
!LO:LB:g=original	!	!	!	!	!	!	!	!
=83	=83	=83	=83	=83	=83	=83	=83	=83
8r	.	.	16bn\LL	.	16dd\LL	.	8dd\	De-
.	.	.	16b\	.	16dd\	.	.	.
8G\L	.	.	16b\	.	16dd\	.	8g/	-us
.	.	.	16b\JJ	.	16dd\JJ	.	.	.
8Bn\	.	.	16dd\LL	.	16ff\LL	.	8r	.
.	.	.	16dd\	.	16ff\	.	.	.
8G\J	.	.	16dd\	.	16ff\	.	8ff\	su-
.	.	.	16dd\JJ	.	16ff\JJ	.	.	.
*	*	*	*Xtremolo	*	*Xtremolo	*	*	*
=84	=84	=84	=84	=84	=84	=84	=84	=84
.	.	.	.	.	.	.	8qqff/	.
!	!	!	!	!LO:DY:a:t=for.	!	!LO:DY:a:t=for.	!	!
8c\	.	.	(16cc\LL	f	16ee\LL	f	4ee\	-os
.	.	.	16ee\)	.	16gg|\	.	.	.
8r	.	.	(16ee\	.	(16gg\	.	.	.
.	.	.	16dd\JJ)	.	16ff\JJ)	.	.	.
!LO:TX:t=P:problem=mixed beam	!	!	!	!	!	!	!	!
8c\L	.	.	8cc\L	.	8ee\L	.	8r	.
!	!	!	!	!LO:DY:a:t=p&colon;	!	!LO:DY:a:t=pia.	!	!
8C/J	.	.	8a\J	p	8cc|\J	p	8cc\	e-
=85	=85	=85	=85	=85	=85	=85	=85	=85
8r	.	.	16b-\LL	.	16dd\LL	.	8dd\	-le-
.	.	.	16dd\	.	16bb-\	.	.	.
8B-X\L	5 3	.	16dd\	.	16bb-\	.	8bb-\	-git,
.	.	.	16dd\JJ	.	16bb-\JJ	.	.	.
*	*	*	*tremolo	*	*	*	*	*
!	!	!	!	!	!LO:LB:g=original	!	!	!
8d\	.	.	16dd\LL	.	16bb-\LL	.	8r	.
.	.	.	16dd\	.	16bb-\	.	.	.
8B-\J	.	.	16dd\	.	16bb-\	.	8dd\	nam
.	.	.	16dd\JJ	.	16bb-\JJ	.	.	.
=86	=86	=86	=86	=86	=86	=86	=86	=86
*	*	*	*	*	*tremolo	*	*	*
8r	.	.	16cc\LL	.	16aa\LL	.	8cc\	di-
.	.	.	16cc\	.	16aa\	.	.	.
8F\L	.	.	16cc\	.	16aa\	.	8aa\	-gna
.	.	.	16cc\	.	16aa\	.	.	.
8A\	.	.	16cc\	.	16aa\	.	8r	.
.	.	.	16cc\	.	16aa\	.	.	.
8F\J	.	.	16cc\	.	16aa\	.	8cc\	fu-
.	.	.	16cc\JJ	.	16aa\JJ	.	.	.
!	!	!	!	!	!	!	!LO:LB:g=original	!
=87	=87	=87	=87	=87	=87	=87	=87	=87
8r	.	.	16b-\LL	.	16gg\LL	.	8b-\	-iſ-
.	.	.	16b-\	.	16gg\	.	.	.
8C/L	7	.	16b-\	.	16gg\	.	8gg\	-ti
.	.	.	16b-\	.	16gg\	.	.	.
8E/	.	.	16b-\	.	16gg\	.	8r	.
.	.	.	16b-\	.	16gg\	.	.	.
8C/J	.	.	16b-\	.	16gg\	.	8b-\	Di-
.	.	.	16b-\JJ	.	16gg\JJ	.	.	.
=88	=88	=88	=88	=88	=88	=88	=88	=88
8r	.	.	16a/LL	.	16ff\LL	.	8a\	-vi-
.	.	.	16a/	.	16ff\	.	.	.
8F\L	.	.	16a/	.	16ff\	.	8ff\	-no
.	.	.	16a/	.	16ff\	.	.	.
8A\	.	.	16a/	.	16ff\	.	8r	.
.	.	.	16a/	.	16ff\	.	.	.
8F\J	.	.	16a/	.	16ff\	.	8ff\	A-
.	.	.	16a/JJ	.	16ff\JJ	.	.	.
*	*	*	*Xtremolo	*	*Xtremolo	*	*	*
=89	=89	=89	=89	=89	=89	=89	=89	=89
!LO:TX:t=P:problem=mixed beam	!	!	!	!	!	!	!	!
8c\L	.	.	(16cc\LL	.	(16ee\LL	.	(16ee\LL	-mo-
.	.	.	16bn\J)	.	16dd\J)	.	16dd\JJ)	.
8C/	.	.	8cc|\J	.	8cc\J	.	8cc\	-re
8E/	.	.	8r	.	8r	.	8r	.
8C/J	.	.	8e/	.	8cc\	.	8cc\	o
!	!	!	!LO:LB:g=original	!	!	!	!	!
=90	=90	=90	=90	=90	=90	=90	=90	=90
8D\L	7 5 3	.	8f/L	.	(8bn/L	.	(8bn\L	pi-
8E\	-5 3	.	8g/	.	8b-X/)	.	8b-X\J)	.
8F\	3	.	8c/	.	(8a/	.	(8a\L	.
8BBn\J	-7 5 3	.	8f/J	.	8a-X/J)	.	8a-X\J)	.
=91	=91	=91	=91	=91	=91	=91	=91	=91
!	!	!	!	!LO:DY:a:t=for.	!	!LO:DY:a:t=for.	!	!
8C\L	.	.	16e/LL	f	16g\LL	f	4g\	-a
.	.	.	16e/	.	16cc\	.	.	.
16E|\L	.	.	16e/	.	16cc\	.	.	.
16G|\JJ	.	.	16e/JJ	.	16cc\JJ	.	.	.
!LO:TX:t=P:problem=mixed beam	!	!	!	!	!	!	!	!
8c\L	.	.	8e/L	.	8cc\L	.	8r	.
!	!	!	!	!LO:DY:a:t=pia.	!	!LO:DY:a:t=pia.	!	!
8C/J	.	.	8g/J	p	8b-\J	p	8b-\	Ma-
!LO:LB:g=original	!	!	!	!	!	!	!LO:PB:g=original	!
=92	=92	=92	=92	=92	=92	=92	=92	=92
8r	.	.	8r	.	(16a\LL	.	(16a\LL	.
.	.	.	.	.	16cc\J)	.	16cc\J)	.
.	.	.	.	.	.	.	8qqgg/	.
8F\L	.	.	8a/L	.	8ff|\J	.	8ff\J	.
.	.	.	.	.	.	.	8qqgg/	.
8A\	.	.	8a/	.	8ff\L	.	8ff\L	.
.	.	.	.	.	.	.	8qqgg/	.
8F\J	.	.	8a/J	.	8ff\J	.	8ff\J	.
=93	=93	=93	=93	=93	=93	=93	=93	=93
8r	.	.	8r	.	(16ee\LL	.	(16ee\LL	.
.	.	.	.	.	16gg\J)	.	16gg\J)	.
.	.	.	.	.	.	.	8qqcc/	.
8C/L	7	.	8g/L	.	8b-|\J	.	8b-\J	.
.	.	.	.	.	.	.	8qqcc/	.
8E/	.	.	8g/	.	8b-\L	.	8b-\L	.
.	.	.	.	.	.	.	8qqcc/	.
!	!	!	!	!	!LO:TX:b:i:t=volti citiſ	!	!	!
8C/J	.	.	8g/J	.	8b-\J	.	8b-\J	.
!	!	!	!	!	!LO:PB:g=original	!	!	!
=94	=94	=94	=94	=94	=94	=94	=94	=94
!	!	!	!	!	!	!LO:DY:a:t=p&colon;	!	!
8F\L	.	.	8a/L	.	8a\L	p	(16a\LL	.
.	.	.	.	.	.	.	16f\)	.
8G\	.	.	8g/	.	8b-\	.	(16b-\	.
.	.	.	.	.	.	.	16g\JJ)	.
8A\	.	.	8f/	.	8cc\	.	(16cc\LL	.
.	.	.	.	.	.	.	16a\)	.
8B-\J	.	.	8f/J	.	8dd\J	.	(16dd\	.
.	.	.	.	.	.	.	16b-\JJ)	.
=95	=95	=95	=95	=95	=95	=95	=95	=95
4c\	5 4	.	8f/L	.	8cc\L	.	4a\	.
.	.	.	8a/	.	8ff\	.	.	.
4C/	x 3	.	8g/	.	8ff\	.	4gT\	.
.	.	.	8b-/J	.	8ee\J	.	.	.
=96	=96	=96	=96	=96	=96	=96	=96	=96
!	!	!LO:DY:t=for.	!	!LO:DY:a:t=for	!	!LO:DY:a:t=f&colon;	!	!
16F\LL	.	f	16a\LL	f	16ff\LL	f	4f/	-ter
16c|\	.	.	16cc|\	.	16cc|\	.	.	.
16A|\	.	.	16a|\	.	16a|\	.	.	.
16c|\JJ	.	.	16cc|\JJ	.	16cc|\JJ	.	.	.
4F\	.	.	4f/	.	4f/	.	4r	.
=97	=97	=97	=97	=97	=97	=97	=97	=97
!	!	!	!LO:TX:b:i:t=volti citiſ	!	!	!	!	!
2C;/	.	.	2r;	.	2r;	.	4ff;\	Ma-
.	.	.	.	.	.	.	4ggT\	-ri-
!	!	!	!LO:PB:g=original	!	!	!	!	!
=98	=98	=98	=98	=98	=98	=98	=98	=98
!	!	!LO:DY:a:t=Forte.	!	!LO:DY:t=Forte.	!	!	!	!
4F\	.	f	4r	f	4r	.	4ff\	-a.
!	!	!	!	!	!	!LO:DY:a:t=Forte.	!	!
8r	.	.	8r	.	8r	f	4r	.
8C|/	.	.	8c/	.	8c/	.	.	.
=99	=99	=99	=99	=99	=99	=99	=99	=99
8F|>\L	.	.	8f/L	.	8f/L	.	0r	.
8A|\	.	.	8a/	.	8a/	.	.	.
8c|\	.	.	8cc/	.	8cc/	.	.	.
8F|>\J	.	.	8f/J	.	8f/J	.	.	.
=100	=100	=100	=100	=100	=100	=100	=100	=100
16E|\LL	.	.	16e/LL	.	16e/LL	.	.	.
16D|\J	.	.	16d/J	.	16d/J	.	.	.
8C|\J	.	.	8c/J	.	8c/J	.	.	.
8r	.	.	8r	.	8r	.	.	.
16E|\LL	.	.	16e/LL	.	16e/LL	.	.	.
16F|\JJ	.	.	16f/JJ	.	16f/JJ	.	.	.
!LO:LB:g=original	!	!	!	!	!	!	!	!
=101	=101	=101	=101	=101	=101	=101	=101	=101
8G|\L	.	.	8g/L	.	8g/L	.	.	.
8A|\	.	.	8a/	.	8a/	.	.	.
8B-|\	.	.	8b-/	.	8b-/	.	.	.
8G|\J	.	.	8g/J	.	8g/J	.	.	.
!	!	!	!	!	!LO:LB:g=original	!	!	!
=102	=102	=102	=102	=102	=102	=102	=102	=102
!	!	!	!LO:TX:t=P:problem=mixed beam	!	!LO:TX:t=P:problem=mixed beam	!	!	!
8A|\L	.	.	8a/L	.	8a/L	.	.	.
8f|>\J	.	.	8ff\J	.	8ff\J	.	.	.
8r	.	.	8r	.	8r	.	.	.
16E|\LL	.	.	16e/LL	.	16e/LL	.	.	.
16F|\JJ	.	.	16f/JJ	.	16f/JJ	.	.	.
=103	=103	=103	=103	=103	=103	=103	=103	=103
8G|\L	.	.	8g/L	.	8g/L	.	0r	.
8A|\	.	.	8a/	.	8a/	.	.	.
8B-|\	.	.	8b-/	.	8b-/	.	.	.
8G|\J	.	.	8g/J	.	8g/J	.	.	.
=104	=104	=104	=104	=104	=104	=104	=104	=104
8A|\L	.	.	8a\L	.	8a\L	.	.	.
8c|\J	.	.	8cc\J	.	8cc\J	.	.	.
16B-|\LL	.	.	16b-/LL	.	16b-/LL	.	.	.
16A|\	.	.	16a/	.	16a/	.	.	.
16G|\	.	.	16g/	.	16g/	.	.	.
16F|\JJ	.	.	16f/JJ	.	16f/JJ	.	.	.
!	!	!	!LO:LB:g=original	!	!	!	!	!
=105	=105	=105	=105	=105	=105	=105	=105	=105
!LO:TX:t=P:problem=mixed beam	!	!	!LO:TX:t=P:problem=mixed beam	!	!	!	!	!
8F\L	.	.	8c/L	.	4c/	.	.	.
8A\	6	.	8ff\	.	.	.	.	.
8c\	4	.	8ff\	.	4ggT\	.	.	.
8C/J	3	.	8ee\J	.	.	.	.	.
=106	=106	=106	=106	=106	=106	=106	=106	=106
!LO:TX:a:t=R.	!	!	!	!	!	!	!	!
!LO:TX:t=P:problem=mixed beam	!	!	!	!	!	!	!	!
8FF/L	.	.	8ff\L	.	8ff\L	.	.	.
8F\	.	.	8dd\J	.	8ff\J	.	.	.
8FF/	.	.	16cc\LL	.	(16ee\LL	.	.	.
.	.	.	16dd\	.	16ff\)	.	.	.
8F\J	.	.	16cc\	.	(16ee\	.	.	.
.	.	.	16b-\JJ	.	16dd\JJ)	.	.	.
=107	=107	=107	=107	=107	=107	=107	=107	=107
!LO:TX:t=P:problem=mixed beam	!	!	!	!	!	!	!	!
8FF/L	.	.	4b-T\	.	4ddT\	.	0r	.
8F\	.	.	.	.	.	.	.	.
8FF/	.	.	4a/	.	4cc\	.	.	.
8F\J	.	.	.	.	.	.	.	.
=108	=108	=108	=108	=108	=108	=108	=108	=108
!LO:TX:t=P:problem=mixed beam	!	!	!	!	!	!	!	!
8FF/L	.	.	8r	.	8r	.	.	.
8F\	.	.	8b-\	.	8dd\	.	.	.
8FF/	.	.	(16a/LL	.	(16cc\LL	.	.	.
.	.	.	16b-/)	.	16dd\)	.	.	.
8F\J	.	.	(16a/	.	(16cc\	.	.	.
.	.	.	16g/JJ)	.	16b-\JJ)	.	.	.
!	!	!	!	!	!LO:LB:g=original	!	!	!
=109	=109	=109	=109	=109	=109	=109	=109	=109
!LO:TX:t=P:problem=mixed beam	!	!	!	!	!	!	!	!
8FF/L	.	.	4g/	.	4b-T\	.	.	.
8F\	.	.	.	.	.	.	.	.
8FF/	.	.	4f/	.	4a/	.	.	.
8F\J	.	.	.	.	.	.	.	.
=110	=110	=110	=110	=110	=110	=110	=110	=110
!LO:TX:t=P:problem=takty nr 111-114 zapisane repetycją	!	!	!	!	!	!	!	!
!LO:TX:t=P:problem=mixed beam	!	!	!	!	!	!	!	!
8FF/Lyy	.	.	8r	.	8r	.	.	.
8F\yy	.	.	8ff\	.	8ddd\	.	.	.
8FF/yy	.	.	16ee\LL	.	(16ccc\LL	.	.	.
.	.	.	16ff\	.	16ddd\)	.	.	.
8F\Jyy	.	.	16ee\	.	(16ccc\	.	.	.
.	.	.	16dd\JJ	.	16bb-\JJ)	.	.	.
=111	=111	=111	=111	=111	=111	=111	=111	=111
!LO:TX:t=P:problem=mixed beam	!	!	!	!	!	!	!	!
8FF/Lyy	.	.	4dd\	.	4bb-T\	.	0r	.
8F\yy	.	.	.	.	.	.	.	.
8FF/yy	.	.	4cc\	.	4aa\	.	.	.
8F\Jyy	.	.	.	.	.	.	.	.
=112	=112	=112	=112	=112	=112	=112	=112	=112
!LO:TX:t=P:problem=mixed beam	!	!	!	!	!	!	!	!
8FF/Lyy	.	.	8r	.	8r	.	.	.
8F\yy	.	.	8dd\	.	8bb-\	.	.	.
8FF/yy	.	.	(16cc\LL	.	(16aa\LL	.	.	.
.	.	.	16dd\)	.	16bb-\)	.	.	.
8F\Jyy	.	.	(16cc\	.	(16aa\	.	.	.
.	.	.	16b-\JJ)	.	16gg\JJ)	.	.	.
=113	=113	=113	=113	=113	=113	=113	=113	=113
!LO:TX:t=P:problem=mixed beam	!	!	!	!	!	!	!	!
8FF/Lyy	.	.	4b-/	.	4ggT\	.	.	.
8F\yy	.	.	.	.	.	.	.	.
8FF/yy	.	.	4a/	.	4ff\	.	.	.
8F\Jyy	.	.	.	.	.	.	.	.
!LO:PB:g=original	!	!	!LO:LB:g=original	!	!	!	!	!
=114	=114	=114	=114	=114	=114	=114	=114	=114
8r	.	.	16cc\LL	.	16ee\LL	.	.	.
.	.	.	16ee\JJ	.	16gg\JJ	.	.	.
.	.	.	.	.	8qqccc/	.	.	.
8C/L	7	.	4gg\	.	4bb-\	.	.	.
8E/	.	.	.	.	.	.	.	.
8F/J	.	.	8ff\	.	8aa\	.	.	.
=115	=115	=115	=115	=115	=115	=115	=115	=115
8r	.	.	8ee\	.	8gg\	.	0r	.
.	.	.	.	.	8qqff/	.	.	.
8G\L	6_ 3_	.	4g/	.	4ee\	.	.	.
8C\	.	.	.	.	.	.	.	.
8F\J	x	.	8a/	.	8ff\	.	.	.
!	!	!	!	!	!LO:LB:g=original	!	!	!
=116	=116	=116	=116	=116	=116	=116	=116	=116
!	!	!	!LO:TUP:b	!	!	!	!	!
8r	.	.	24g/LL	.	24ee\LL	.	.	.
.	.	.	24a/	.	24ff\	.	.	.
.	.	.	24b-/JJ	.	24gg\JJ	.	.	.
.	.	.	8qqa/	.	8qqcc/	.	.	.
8C\L	7	.	4g/	.	4b-\	.	.	.
8E\	.	.	.	.	.	.	.	.
8F\J	.	.	8f/	.	8a/	.	.	.
=117	=117	=117	=117	=117	=117	=117	=117	=117
!	!	!	!LO:TX:t=P:problem=mixed beam	!	!LO:TX:t=P:problem=mixed beam	!	!	!
8r	.	.	16e/LL	.	16g/LL	.	.	.
.	.	.	16ee|\	.	16gg|\	.	.	.
8C\L	.	.	(16ee\	.	(16gg\	.	.	.
.	.	.	16ff\JJ)	.	16aa\JJ)	.	.	.
8E\	.	.	4gg\	.	4bb-\	.	.	.
8C\J	.	.	.	.	.	.	.	.
=118	=118	=118	=118	=118	=118	=118	=118	=118
!LO:TX:t=P:problem=mixed beam	!	!	!	!	!	!	!	!
8F\L	.	.	8cc\L	.	24aa\LL	.	.	.
.	.	.	.	.	24gg\	.	.	.
.	.	.	.	.	24ff\	.	.	.
8A\	6	.	8ff\	.	24ee\	.	.	.
.	.	.	.	.	24dd\	.	.	.
.	.	.	.	.	24cc\JJ	.	.	.
8c\	4	.	8ff\	.	4gg\	.	.	.
8C/J	3	.	8ee\J	.	.	.	.	.
=119	=119	=119	=119	=119	=119	=119	=119	=119
!	!	!	!LO:TX:t=P:problem=mixed beam	!	!	!	!	!
4F\	.	.	8ff\L	.	8ff\L	.	0r	.
.	.	.	16.a/L	.	16.cc\L	.	.	.
.	.	.	32b-/JJk	.	32dd\JJk	.	.	.
8r	.	.	8a/L	.	8cc\L	.	.	.
8B-\	4 2	.	8g/J	.	8ee\J	.	.	.
=120	=120	=120	=120	=120	=120	=120	=120	=120
4A\	6 3	.	8a/L	.	8ff\L	.	.	.
.	.	.	16.a/L	.	16.cc\L	.	.	.
.	.	.	32b-/JJk	.	32dd\JJk	.	.	.
8r	.	.	8a/L	.	8cc\L	.	.	.
8C/	3	.	8g/J	.	8b-\J	.	.	.
!	!	!	!LO:LB:g=original	!	!	!	!	!
=121	=121	=121	=121	=121	=121	=121	=121	=121
4F\	.	.	8f/L	.	8a\L	.	.	.
.	.	.	16.a/L	.	16.cc\L	.	.	.
.	.	.	32b-/JJk	.	32dd\JJk	.	.	.
8r	.	.	8a/L	.	8cc\L	.	.	.
8B-\	4 2	.	8g/J	.	8ee\J	.	.	.
!	!	!	!	!	!LO:LB:g=original	!	!	!
=122	=122	=122	=122	=122	=122	=122	=122	=122
4A\	6 3	.	8a/L	.	8ff\L	.	.	.
.	.	.	16.a/L	.	16.cc\L	.	.	.
.	.	.	32b-/JJk	.	32dd\JJk	.	.	.
8r	.	.	8a/L	.	8cc\L	.	.	.
8C/	3	.	8g/J	.	8b-\J	.	.	.
=123	=123	=123	=123	=123	=123	=123	=123	=123
.	.	.	8qqg/	.	8qqb-/	.	.	.
4F\	.	.	4f/	.	4a/	.	2r	.
!LO:TX:a:i:t=Finis	!	!	!LO:TX:a:i:t=Finis	!	!LO:TX:a:i:t=Finis	!	!LO:TX:a:i:t=Finis	!
4r;;	.	.	4r	.	4r	.	.	.
!LO:LB:g=original	!	!	!LO:LB:g=original	!	!LO:LB:g=original	!	!LO:LB:g=original	!
=124||	=124||	=124||	=124||	=124||	=124||	=124||	=124||	=124||
*>B	*>B	*>B	*>B	*>B	*>B	*>B	*>B	*>B
*M3/4	*	*	*M3/4	*	*M3/4	*	*M3/4	*
*	*	*	*^	*	*	*	*	*
*	*	*	*	*tremolo	*	*	*	*	*
!LO:TX:a:B:t=Adagio.	!	!LO:DY:t=Piano.	!LO:TX:a:B:t=adagio.	!	!	!LO:TX:a:B:t=adagio	!LO:DY:a:t=piano.	!LO:TX:a:B:t=Adagio.	!
8D\L	.	p	8f/L	8A/L	.	4dd\	p	4dd\	Au-
8D\	.	.	8f/	8A/	.	.	.	.	.
8D\	.	.	8f/	8A/	.	4a/	.	4a\	-di
8D\	.	.	8f/	8A/	.	.	.	.	.
8D\	.	.	8f/	8A/	.	4ff\	.	4ff\	Cli-
8D\J	.	.	8f/J	8A/J	.	.	.	.	.
*	*	*	*v	*v	*	*	*	*	*
=125	=125	=125	=125	=125	=125	=125	=125	=125
2.C#X/	6 3	.	8e 8A/L	.	(8ee\L	.	(8ee\L	-en-
.	.	.	8e 8A/	.	8cc#X\J)	.	8cc#X\J)	.
.	.	.	8e 8A/	.	2a/	.	2a\	-tes
.	.	.	8e 8A/	.	.	.	.	.
.	.	.	8e 8A/	.	.	.	.	.
.	.	.	8e 8A/J	.	.	.	.	.
*	*	*	*Xtremolo	*	*	*	*	*
=126	=126	=126	=126	=126	=126	=126	=126	=126
4AA/	#	.	4c#X/	.	(8ee\L	.	(8ee\L	Te
.	.	.	.	.	8dd\)	.	8dd\J)	.
4r	.	.	4r	.	(8cc#X\	.	(8cc#X\L	in-
.	.	.	.	.	8b-X\)	.	8b-\J)	.
4C#X/	6 5	.	4e/	.	(8a\	.	(8a\L	-vo-
.	.	.	.	.	8g\J)	.	8g\J)	.
=127	=127	=127	=127	=127	=127	=127	=127	=127
4D\	.	.	8f/L	.	(8f/L	.	(8f/L	-can-
.	.	.	8e/J	.	8e/J)	.	8e/J)	.
4DD/	.	.	4d/	.	4d/	.	4d/	-tes
4r	.	.	4r	.	4r	.	4r	.
=128	=128	=128	=128	=128	=128	=128	=128	=128
*tremolo	*	*	*tremolo	*	*	*	*	*
8F\L	.	.	8a/L	.	4ff\	.	4ff\	au-
8F\	.	.	8a/	.	.	.	.	.
8F\	.	.	8a/	.	4f/	.	4f/	-di
8F\	.	.	8a/	.	.	.	.	.
8F\	.	.	8a/	.	4aa\	.	4aa\	Cli-
8F\J	.	.	8a/J	.	.	.	.	.
!	!	!	!	!	!	!	!LO:LB:g=original	!
=129	=129	=129	=129	=129	=129	=129	=129	=129
8E\L	6 3	.	8g/L	.	(8gg\L	.	(8gg\L	-en-
8E\	.	.	8g/	.	8ee\J)	.	8ee\J)	.
8E\	.	.	8g/	.	2cc\	.	2cc\	-tes,
8E\	.	.	8g/	.	.	.	.	.
8E\	.	.	8g/	.	.	.	.	.
8E\J	.	.	8g/J	.	.	.	.	.
*Xtremolo	*	*	*Xtremolo	*	*	*	*	*
!	!	!	!	!	!LO:LB:g=original	!	!	!
=130	=130	=130	=130	=130	=130	=130	=130	=130
4C/	.	.	4e/	.	(8gg\L	.	(8gg\L	te
.	.	.	.	.	8ff\)	.	8ff\J)	.
4r	.	.	4r	.	(8ee\	.	(8ee\L	ho-
.	.	.	.	.	8dd\)	.	8dd\J)	.
4E\	6 5	.	4g/	.	(8cc\	.	(8cc\L	-no-
.	.	.	.	.	8b-\J)	.	8b-\J)	.
!LO:LB:g=original	!	!	!	!	!	!	!	!
=131	=131	=131	=131	=131	=131	=131	=131	=131
8F\L	.	.	(8a/L	.	(8a\L	.	(8a\L	-ran-
8G\	.	.	8g/J)	.	8b-\J)	.	8b-\J)	.
8A\	.	.	4a/	.	4cc\	.	4cc\	-tes
8G\	.	.	.	.	.	.	.	.
8A\	.	.	4r	.	8r	.	8r	.
8F\J	.	.	.	.	8ff\	.	8ff\	Te
!	!	!	!LO:LB:g=original	!	!	!	!	!
=132	=132	=132	=132	=132	=132	=132	=132	=132
4C/	.	.	4e/	.	(8gg\L	.	(8gg\L	que
.	.	.	.	.	8ff\)	.	8ff\J)	.
4r	.	.	4r	.	(8ee\	.	(8ee\L	lau-
.	.	.	.	.	8dd\)	.	8dd\J)	.
4E\	6 5	.	4g/	.	(8cc\	.	(8cc\L	.
.	.	.	.	.	8b-\J)	.	8b-\J)	.
=133	=133	=133	=133	=133	=133	=133	=133	=133
8F\L	.	.	(8f/L	.	(8a/L	.	(8a\L	-dan-
8G\	.	.	8e/J)	.	8g/J)	.	8g\J)	.
8A\	.	.	4f/	.	4f/	.	4f/	-tes,
8G\	.	.	.	.	.	.	.	.
8A\	.	.	8r	.	8r	.	8r	.
8F\J	.	.	8a/	.	8cc\	.	8cc\	o
=134	=134	=134	=134	=134	=134	=134	=134	=134
4F\	.	.	4a/	.	4ff\	.	4ff\	Ma-
4BB-/	6 3	.	4b-/	.	4gg\	.	4gg\	-ter
!	!	!	!	!	!	!	!LO:LB:g=original	!
4C/	.	.	4g/	.	4ee\	.	4ee\	pi-
=135	=135	=135	=135	=135	=135	=135	=135	=135
!	!	!	!	!LO:DY:a:t=f&colon;	!	!	!	!
4FF/	.	.	8a/L	f	8ff\L	.	4ff\	-a
!	!	!	!	!	!	!LO:DY:a:t=f&colon;	!	!
.	.	.	8a/J	.	8cc\J	f	.	.
4r	.	.	(8a/L	.	(8cc\L	.	4r	.
.	.	.	8g/)	.	8b-\)	.	.	.
4r	.	.	(8g/	.	(8b-\	.	4r	.
.	.	.	8f/J)	.	8a\J)	.	.	.
!	!	!	!	!	!LO:LB:g=original	!	!	!
=136	=136	=136	=136	=136	=136	=136	=136	=136
!	!	!	!	!LO:DY:a:t=p&colon;:rj	!	!	!	!
4D\	#	.	4a/	p	4ff#X\	.	4ff#X\	Mor-
4d\	.	.	4a/	.	2ff#\	.	2ff#\	-tis
4c\	#4 2	.	4a/	.	.	.	.	.
=137	=137	=137	=137	=137	=137	=137	=137	=137
4B-X\	6 3	.	(8b-\L	.	(8gg\L	.	(8gg\L	in
.	.	.	8a\)	.	8ff#X\)	.	8ff#X\J)	.
4GG/	5 3	.	(8b-\	.	(8gg\	.	(8gg\L	ho-
.	.	.	8a\J)	.	8ff#\J)	.	8ff#\J)	.
4r	.	.	4b-\	.	4gg\	.	4gg\	-ra
!LO:LB:g=original	!	!	!	!	!	!	!	!
=138	=138	=138	=138	=138	=138	=138	=138	=138
4C/	.	.	4g/	.	4ee\	.	4ee\	a-
4c\	.	.	4g/	.	2ee\	.	2ee\	-des-
4B-\	4 2	.	4g/	.	.	.	.	.
!	!	!	!LO:LB:g=original	!	!	!	!	!
=139	=139	=139	=139	=139	=139	=139	=139	=139
4A\	6 3	.	(8a/L	.	(8ffn\L	.	(8ffn\L	-to
.	.	.	8g/)	.	8ee\)	.	8ee\J)	.
4FF/	.	.	(8a/	.	(8ff\	.	(8ff\L	no-
.	.	.	8g/J)	.	8ee\J)	.	8ee\J)	.
4r	.	.	4a/	.	4ff\	.	4ff\	-bis
=140	=140	=140	=140	=140	=140	=140	=140	=140
4D\	.	.	4a/	.	8.aa\L	.	(8.aa\L	ut
.	.	.	.	.	16ff\Jk	.	16ff\Jk)	.
4A\	6 4	.	4f/	.	4dd\	.	(4dd\	pi-
4AA/	5 #	.	4e/	.	4cc#X\	.	4cc#X\)	.
=141	=141	=141	=141	=141	=141	=141	=141	=141
!	!	!	!LO:TX:t=P:problem=mixed beam	!LO:DY:a:t=for.	!	!LO:DY:a	!	!
4D\	.	.	8d/L	f	8dd\L	.	4dd\	-e
!	!	!	!	!	!	!LO:DY:a:t=f.:rj	!	!
.	.	.	8ff|\	.	8aa|\	f	.	.
4r	.	.	(8ff\	.	(8aa\	.	4r	.
.	.	.	8ee\)	.	8gg\)	.	.	.
4r	.	.	(8ee\	.	(8gg\	.	4r	.
.	.	.	8dd\J)	.	8ffn\J)	.	.	.
!	!	!	!	!	!	!	!LO:LB:g=original	!
=142	=142	=142	=142	=142	=142	=142	=142	=142
*	*	*	*tremolo	*	*	*	*	*
!	!	!	!	!LO:DY:a	!	!LO:DY:a:t=pia.	!	!
8A\L	#	.	8c#X/L	p	2.a/	p	2.a\	mo-
8A\	.	.	8c#/	.	.	.	.	.
8A\	.	.	8c#/	.	.	.	.	.
8A\	.	.	8c#/	.	.	.	.	.
8A\	.	.	8c#/	.	.	.	.	.
8A\J	.	.	8c#/J	.	.	.	.	.
!	!	!	!	!	!LO:LB:g=original	!	!	!
=143	=143	=143	=143	=143	=143	=143	=143	=143
*tremolo	*	*	*	*	*	*	*	*
8G#X\L	n	.	8d/L	.	2.bn\	.	(2.bn\	-ri-
8G#\	.	.	8d/	.	.	.	.	.
8G#\	.	.	8d/	.	.	.	.	.
8G#\	.	.	8d/	.	.	.	.	.
8G#\	.	.	8d/	.	.	.	.	.
8G#\J	.	.	8d/J	.	.	.	.	.
=144	=144	=144	=144	=144	=144	=144	=144	=144
8Gn\L	#4 2	.	8A/L	.	2.cc#X\	.	(2.cc#X\)	-a-
8G\	.	.	8A/	.	.	.	.	.
8G\	.	.	8A/	.	.	.	.	.
8G\	.	.	8A/	.	.	.	.	.
8G\	.	.	8A/	.	.	.	.	.
8G\J	.	.	8A/J	.	.	.	.	.
=145	=145	=145	=145	=145	=145	=145	=145	=145
8F#X\L	6 3	.	8A/L	.	2.dd\	.	[2.dd\)	.
8F#\	.	.	8A/	.	.	.	.	.
8F#\	.	.	8A/	.	.	.	.	.
8F#\	.	.	8A/	.	.	.	.	.
8F#\	.	.	8A/	.	.	.	.	.
8F#\J	.	.	8A/J	.	.	.	.	.
=146	=146	=146	=146	=146	=146	=146	=146	=146
8Fn\L	6 3	.	8A/L	.	2.dd\	.	2.dd\]	.
8F\	.	.	8A/	.	.	.	.	.
8F\	.	.	8A/	.	.	.	.	.
8F\	.	.	8A/	.	.	.	.	.
8F\	.	.	8A/	.	.	.	.	.
8F\J	.	.	8A/J	.	.	.	.	.
*Xtremolo	*	*	*Xtremolo	*	*	*	*	*
!LO:LB:g=original	!	!	!	!	!	!	!	!
=147	=147	=147	=147	=147	=147	=147	=147	=147
8E/L	6\ 3_	.	4cc#X\	.	4cc#X\	.	4cc#X\	.
8D/	.	.	.	.	.	.	.	.
8C#X/	.	.	2ee\	.	2gg\	.	2gg\	-mur
8BBn/	.	.	.	.	.	.	.	.
8C#/	.	.	.	.	.	.	.	.
8AA/J	.	.	.	.	.	.	.	.
!	!	!	!LO:LB:g=original	!	!	!	!	!
=148	=148	=148	=148	=148	=148	=148	=148	=148
.	x	.	.	.	8qqgg/	.	.	.
4D\	.	.	4dd\	.	8ff\L	.	8ff\L	ae-
.	.	.	.	.	16ee\L	.	(16ee\L	.
.	.	.	.	.	16dd\JJ	.	16dd\JJ)	.
.	.	.	.	.	8qqff/	.	.	.
4A\	5 4	.	4dd\	.	2eet\	.	2eet\	-ter-
4AA/	x #	.	4cc#X\	.	.	.	.	.
=149	=149	=149	=149	=149	=149	=149	=149	=149
!LO:TX:t=P:problem=mixed beam	!	!LO:DY:a:t=for.	!	!LO:DY:a:t=for.	!	!LO:DY:a:t=for.:rj	!	!
8D/L	.	f	8dd\L	f	8dd\L	f	4dd\	-ne
16d|\L	.	.	(16dd\L	.	(16dd\L	.	.	.
16c#X|\JJ	.	.	16cc#X\JJ)	.	16cc#X\JJ)	.	.	.
8d|\L	.	.	8dd\L	.	8dd/L	.	4r	.
8A|\	.	.	8a\J	.	8a/	.	.	.
8F|>\	.	.	8fn/L	.	8f/	.	4r	.
8D|\J	.	.	8d/J	.	8d/J	.	.	.
=150	=150	=150	=150	=150	=150	=150	=150	=150
2.AA;/	.	.	1.r;;	.	1.r;	.	4dd;\	in
.	.	.	.	.	.	.	2eet\	De-
=151	=151	=151	=151	=151	=151	=151	=151	=151
4D\	.	.	.	.	.	.	4dd\	-o.
4r	.	.	.	.	.	.	4r	.
!LO:TX:b:i:t=da Capo	!	!	!LO:TX:b:i:t=da Capo	!	!LO:TX:b:i:t=da Capo.	!	!LO:TX:b:i:t=da Capo	!
4r	.	.	.	.	.	.	4r	.
==	==	==	==	==	==	==	==	==
*-	*-	*-	*-	*-	*-	*-	*-	*-
!!!system-decoration: <s1>[(g1)]<s4>
!!!RDF**kern: > = above
!!!RDF**kern: < = below
!!!RDF**kern: | = vertical stroke
!!!ENC: Marcin Jachim
!!!END: 2020-06-29
!!!ENC: Andrzej Kubiczek
!!!END: 2022-01-30
